Numix/16/status/indicator-keyboard-Ie-5.svg

<?xml version="1.0" encoding="UTF-8" standalone="no"?>
<svg
   xmlns:dc="http://purl.org/dc/elements/1.1/"
   xmlns:cc="http://creativecommons.org/ns#"
   xmlns:rdf="http://www.w3.org/1999/02/22-rdf-syntax-ns#"
   xmlns:svg="http://www.w3.org/2000/svg"
   xmlns="http://www.w3.org/2000/svg"
   xmlns:sodipodi="http://sodipodi.sourceforge.net/DTD/sodipodi-0.dtd"
   xmlns:inkscape="http://www.inkscape.org/namespaces/inkscape"
   viewBox="0 0 16 16"
   id="svg2"
   version="1.1"
   inkscape:version="0.91 r13725"
   sodipodi:docname="indicator-keyboard-Ie-5.svg">
  <metadata
     id="metadata14">
    <rdf:RDF>
      <cc:Work
         rdf:about="">
        <dc:format>image/svg+xml</dc:format>
        <dc:type
           rdf:resource="http://purl.org/dc/dcmitype/StillImage" />
      </cc:Work>
    </rdf:RDF>
  </metadata>
  <defs
     id="defs12" />
  <sodipodi:namedview
     pagecolor="#ffffff"
     bordercolor="#666666"
     borderopacity="1"
     objecttolerance="10"
     gridtolerance="10"
     guidetolerance="10"
     inkscape:pageopacity="0"
     inkscape:pageshadow="2"
     inkscape:window-width="459"
     inkscape:window-height="369"
     id="namedview10"
     showgrid="false"
     inkscape:zoom="14.75"
     inkscape:cx="8"
     inkscape:cy="8"
     inkscape:window-x="65"
     inkscape:window-y="24"
     inkscape:window-maximized="0"
     inkscape:current-layer="svg2" />
  <path
     style="fill:#ececec;fill-opacity:1"
     d="M 1.5996094 0 C 0.71320937 2.9605947e-16 0 0.71320937 0 1.5996094 L 0 14.400391 C 2.9605947e-16 15.286791 0.71320937 16 1.5996094 16 L 14.400391 16 C 15.286791 16 16 15.286791 16 14.400391 L 16 1.5996094 C 16 0.71320937 15.286791 0 14.400391 0 L 1.5996094 0 z M 3.40625 4.859375 L 4.0175781 4.859375 L 4.0175781 11.095703 L 3.40625 11.095703 L 3.40625 4.859375 z M 7.3574219 6.3359375 C 7.9274219 6.3359375 8.3807969 6.5205781 8.7167969 6.8925781 C 9.0587969 7.2645781 9.2304688 7.8373281 9.2304688 8.6113281 C 9.2304688 8.6593281 9.2267031 8.7078594 9.2207031 8.7558594 C 9.2207031 8.8038594 9.2169375 8.848625 9.2109375 8.890625 L 5.9453125 8.890625 C 5.9633125 9.460625 6.1031875 9.8990779 6.3671875 10.205078 C 6.6311875 10.511078 7.0509531 10.664062 7.6269531 10.664062 C 7.9449531 10.664062 8.1968125 10.634219 8.3828125 10.574219 C 8.5688125 10.514219 8.7050625 10.463875 8.7890625 10.421875 L 8.8964844 10.925781 C 8.8124844 10.973781 8.6539219 11.029703 8.4199219 11.095703 C 8.1919219 11.161703 7.921375 11.195312 7.609375 11.195312 C 7.201375 11.195312 6.8544063 11.135625 6.5664062 11.015625 C 6.2784062 10.895625 6.0414688 10.727719 5.8554688 10.511719 C 5.6694687 10.295719 5.5332188 10.040094 5.4492188 9.7460938 C 5.3652188 9.4460938 5.3242187 9.119625 5.3242188 8.765625 C 5.3242188 8.357625 5.3801406 8.003125 5.4941406 7.703125 C 5.6141406 7.397125 5.767125 7.1415 5.953125 6.9375 C 6.145125 6.7335 6.3615625 6.5842813 6.6015625 6.4882812 C 6.8475625 6.3862812 7.0994219 6.3359375 7.3574219 6.3359375 z M 7.3671875 6.8574219 C 7.1571875 6.8574219 6.9668281 6.8984219 6.7988281 6.9824219 C 6.6368281 7.0664219 6.4931875 7.1802188 6.3671875 7.3242188 C 6.2471875 7.4622188 6.1520781 7.6245469 6.0800781 7.8105469 C 6.0140781 7.9965469 5.9748906 8.1924844 5.9628906 8.3964844 L 8.6269531 8.3964844 C 8.6149531 7.9104844 8.5011563 7.5317188 8.2851562 7.2617188 C 8.0691562 6.9917187 7.7631875 6.8574219 7.3671875 6.8574219 z M 10.628906 8.8417969 L 12.453125 8.8417969 L 12.453125 9.1757812 L 10.960938 9.1757812 C 10.957004 9.2498812 10.951126 9.3458906 10.943359 9.4628906 C 10.935559 9.5798906 10.927722 9.6994187 10.919922 9.8242188 C 10.912122 9.9451188 10.902325 10.062681 10.890625 10.175781 C 10.878925 10.288881 10.869128 10.379012 10.861328 10.445312 C 11.161628 10.453112 11.422225 10.490341 11.640625 10.556641 C 11.859025 10.622941 12.037334 10.711119 12.177734 10.824219 C 12.318134 10.937319 12.421981 11.074475 12.488281 11.234375 C 12.558481 11.394275 12.59375 11.572578 12.59375 11.767578 C 12.59375 11.939178 12.564359 12.097894 12.505859 12.246094 C 12.451259 12.394294 12.365047 12.523613 12.248047 12.632812 C 12.131047 12.742012 11.984087 12.828225 11.804688 12.890625 C 11.625288 12.953025 11.411716 12.984375 11.166016 12.984375 C 11.041216 12.984375 10.923653 12.974578 10.814453 12.955078 C 10.709153 12.939478 10.615097 12.919884 10.529297 12.896484 C 10.447397 12.873084 10.376859 12.849572 10.318359 12.826172 C 10.259859 12.802772 10.216753 12.783178 10.189453 12.767578 L 10.289062 12.427734 C 10.312463 12.443334 10.35165 12.462928 10.40625 12.486328 C 10.46475 12.509728 10.531369 12.533241 10.605469 12.556641 C 10.683469 12.576141 10.767728 12.593775 10.861328 12.609375 C 10.958828 12.624975 11.060716 12.632812 11.166016 12.632812 C 11.361016 12.632812 11.523644 12.611259 11.652344 12.568359 C 11.784944 12.521559 11.888797 12.458859 11.966797 12.380859 C 12.044797 12.302859 12.099659 12.212728 12.130859 12.111328 C 12.165959 12.006028 12.183594 11.894337 12.183594 11.773438 C 12.183594 11.617438 12.158122 11.476362 12.107422 11.351562 C 12.056722 11.226762 11.968544 11.120956 11.839844 11.035156 C 11.711144 10.949356 11.536759 10.884697 11.318359 10.841797 C 11.099959 10.794997 10.823681 10.771484 10.488281 10.771484 C 10.511681 10.572584 10.531275 10.392316 10.546875 10.228516 C 10.562475 10.060816 10.576191 9.9001469 10.587891 9.7480469 C 10.599591 9.5920469 10.607428 9.4431281 10.611328 9.2988281 C 10.619128 9.1506281 10.625006 8.9977969 10.628906 8.8417969 z "
     id="path4" />
</svg>

<svg xmlns="http://www.w3.org/2000/svg" viewBox="0 0 16 16">
 <path d="m 1.6 0 c -0.886 0 -1.6 0.713 -1.6 1.6 l 0 12.801 c 0 0.886 0.713 1.6 1.6 1.6 l 12.801 0 c 0.886 0 1.6 -0.713 1.6 -1.6 l 0 -12.801 c 0 -0.886 -0.713 -1.6 -1.6 -1.6 l -12.801 0 z m 1.807 4.859 l 0.611 0 l 0 6.236 l -0.611 0 l 0 -6.236 z m 3.951 1.477 c 0.57 0 1.023 0.185 1.359 0.557 c 0.342 0.372 0.514 0.945 0.514 1.719 c 0 0.048 -0.004 0.097 -0.01 0.145 c 0 0.048 -0.004 0.093 -0.01 0.135 l -3.266 0 c 0.018 0.57 0.158 1.01 0.422 1.314 c 0.264 0.306 0.684 0.459 1.26 0.459 c 0.318 0 0.57 -0.03 0.756 -0.09 c 0.186 -0.06 0.322 -0.11 0.406 -0.152 l 0.107 0.504 c -0.084 0.048 -0.243 0.104 -0.477 0.17 c -0.228 0.066 -0.499 0.1 -0.811 0.1 c -0.408 0 -0.755 -0.06 -1.043 -0.18 c -0.288 -0.12 -0.525 -0.288 -0.711 -0.504 c -0.186 -0.216 -0.322 -0.472 -0.406 -0.766 c -0.084 -0.3 -0.125 -0.626 -0.125 -0.98 c 0 -0.408 0.056 -0.762 0.17 -1.063 c 0.12 -0.306 0.273 -0.562 0.459 -0.766 c 0.192 -0.204 0.408 -0.353 0.648 -0.449 c 0.246 -0.102 0.498 -0.152 0.756 -0.152 z m 0.01 0.521 c -0.21 0 -0.4 0.041 -0.568 0.125 c -0.162 0.084 -0.306 0.198 -0.432 0.342 c -0.12 0.138 -0.215 0.3 -0.287 0.486 c -0.066 0.186 -0.105 0.382 -0.117 0.586 l 2.664 0 c -0.012 -0.486 -0.126 -0.865 -0.342 -1.135 c -0.216 -0.27 -0.522 -0.404 -0.918 -0.404 z m 3.262 1.984 l 1.824 0 l 0 0.334 l -1.492 0 c -0.004 0.074 -0.01 0.17 -0.018 0.287 c -0.008 0.117 -0.016 0.237 -0.023 0.361 c -0.008 0.121 -0.018 0.238 -0.029 0.352 c -0.012 0.113 -0.021 0.203 -0.029 0.27 c 0.3 0.008 0.561 0.045 0.779 0.111 c 0.218 0.066 0.397 0.154 0.537 0.268 c 0.14 0.113 0.244 0.25 0.311 0.41 c 0.07 0.16 0.105 0.338 0.105 0.533 c 0 0.172 -0.029 0.33 -0.088 0.479 c -0.055 0.148 -0.141 0.278 -0.258 0.387 c -0.117 0.109 -0.264 0.195 -0.443 0.258 c -0.179 0.062 -0.393 0.094 -0.639 0.094 c -0.125 0 -0.242 -0.01 -0.352 -0.029 c -0.105 -0.016 -0.199 -0.035 -0.285 -0.059 c -0.082 -0.023 -0.152 -0.047 -0.211 -0.07 c -0.058 -0.023 -0.102 -0.043 -0.129 -0.059 l 0.1 -0.34 c 0.023 0.016 0.063 0.035 0.117 0.059 c 0.059 0.023 0.125 0.047 0.199 0.07 c 0.078 0.019 0.162 0.037 0.256 0.053 c 0.098 0.016 0.199 0.023 0.305 0.023 c 0.195 0 0.358 -0.022 0.486 -0.064 c 0.133 -0.047 0.236 -0.109 0.314 -0.188 c 0.078 -0.078 0.133 -0.168 0.164 -0.27 c 0.035 -0.105 0.053 -0.217 0.053 -0.338 c 0 -0.156 -0.025 -0.297 -0.076 -0.422 c -0.051 -0.125 -0.139 -0.231 -0.268 -0.316 c -0.129 -0.086 -0.303 -0.15 -0.521 -0.193 c -0.218 -0.047 -0.495 -0.07 -0.83 -0.07 c 0.023 -0.199 0.043 -0.379 0.059 -0.543 c 0.016 -0.168 0.029 -0.328 0.041 -0.48 c 0.012 -0.156 0.02 -0.305 0.023 -0.449 c 0.008 -0.148 0.014 -0.301 0.018 -0.457 z" style="fill:#ececec;fill-opacity:1"/>
</svg>
